img/icon-linkedIn.svg

<svg width="24" height="24" viewBox="0 0 24 24" fill="none" xmlns="http://www.w3.org/2000/svg">
<g id="LinkedIn">
<path id="Shape" fill-rule="evenodd" clip-rule="evenodd" d="M5.33927 3.3042C4.19961 3.3042 3.27244 4.23017 3.27244 5.36833C3.27244 6.50724 4.19961 7.4338 5.33927 7.4338C6.47669 7.4338 7.40204 6.50724 7.40204 5.36833C7.40204 4.23017 6.47669 3.3042 5.33927 3.3042ZM3.55451 8.99818V20.4515H7.11712L7.11847 8.99818H3.55451ZM9.35261 8.99713V20.4503L12.9071 20.4517L12.9085 14.7845C12.9085 13.3298 13.1619 11.8429 15.0414 11.8429C16.8923 11.8429 16.8923 13.5976 16.8923 14.879V20.4503L20.4509 20.449V14.1689C20.4509 11.3348 19.9335 8.71224 16.1809 8.71224C14.4183 8.71224 13.2649 9.70851 12.8126 10.5618H12.7626L12.7627 8.99713H9.35261ZM22.2235 24H1.76983C0.793944 24 0 23.223 0 22.268V1.73068C0 0.776376 0.793944 0 1.76983 0H22.2235C23.2031 0 24 0.776376 24 1.73068V22.268C24 23.223 23.2031 24 22.2235 24Z" fill="white"/>
</g>
</svg>

<svg xmlns="http://www.w3.org/2000/svg" width="24" height="24" fill="none" viewBox="0 0 24 24"><g id="LinkedIn"><path id="Shape" fill="#fff" fill-rule="evenodd" d="M5.34 3.304c-1.14 0-2.068.926-2.068 2.064 0 1.14.928 2.066 2.067 2.066a2.066 2.066 0 0 0 0-4.13M3.554 8.998v11.454h3.562l.001-11.454zm5.798 0V20.45l3.554.002.002-5.668c0-1.454.253-2.941 2.132-2.941 1.851 0 1.851 1.755 1.851 3.036v5.571l3.559-.001v-6.28c0-2.834-.518-5.457-4.27-5.457-1.763 0-2.916.997-3.368 1.85h-.05V8.997zM22.223 24H1.77C.794 24 0 23.223 0 22.268V1.731C0 .776.794 0 1.77 0h20.454C23.204 0 24 .776 24 1.73v20.538c0 .955-.797 1.732-1.776 1.732" clip-rule="evenodd"/></g></svg>
